public/img/events/clavicus-vile.svg

<svg width="200" height="200" viewBox="0 0 200 200" fill="none" xmlns="http://www.w3.org/2000/svg">
<path d="M80.4291 83.7225C68.5397 59.1609 58.0052 31.8191 63.3975 4.20019C64.2204 -0.0148335 57.6506 -1.82064 56.8231 2.41674C51.0534 31.9935 61.788 60.7522 74.5412 87.1017C76.4235 91.0038 82.3068 87.6023 80.4291 83.7225Z" fill="black"/>
<path d="M81.2843 104.874C85.0398 108.347 90.4957 108.306 94.424 105.173C95.8562 104.033 95.6288 101.62 94.424 100.431C93.01 99.0406 91.0368 99.2864 89.6 100.431C88.6271 101.204 86.9812 100.94 86.1037 100.131C82.912 97.1811 78.0789 101.91 81.2843 104.874Z" fill="black"/>
<path d="M91.7778 124.152C91.8687 124.219 91.9596 124.282 92.0551 124.349C91.8596 124.197 91.8551 124.192 92.0369 124.34C92.2143 124.478 92.387 124.621 92.5598 124.769C92.9917 125.135 93.4055 125.515 93.8056 125.913C94.1648 126.271 94.5148 126.637 94.8467 127.022C94.9968 127.192 95.1377 127.361 95.2832 127.536C94.9331 127.107 95.5696 127.925 95.5696 127.929C96.6063 129.35 98.5886 130.177 100.234 129.131C101.667 128.224 102.567 126.07 101.458 124.545C99.6889 122.123 97.6656 120.125 95.2196 118.368C93.7737 117.331 91.3549 118.082 90.5547 119.571C89.6181 121.309 90.2365 123.044 91.7778 124.152Z" fill="black"/>
<path d="M96.429 126.476C90.6593 127.723 85.9763 131.782 83.9212 137.213C82.8573 140.029 82.6755 143.086 83.1529 146.032C83.3165 147.019 83.9394 147.963 83.1801 148.7C82.2435 149.607 79.6156 149.049 78.5335 148.941C76.6967 148.763 75.1235 150.609 75.1235 152.294C75.1235 154.256 76.6921 155.467 78.5335 155.646C81.8616 155.972 85.3079 155.838 87.9268 153.536C90.7093 151.087 90.3956 148.244 89.8546 144.954C88.9089 139.215 92.5234 134.178 98.234 132.94C102.526 132.014 100.712 125.546 96.429 126.476Z" fill="black"/>
<path d="M93.578 158.471C93.6644 158.498 94.0418 158.569 94.0827 158.641C94.0236 158.534 93.5553 158.386 94.0054 158.614C94.3646 158.797 94.7147 158.981 95.0511 159.204C95.1193 159.249 95.5876 159.589 95.2466 159.329C94.9056 159.066 95.3603 159.437 95.4149 159.486C95.7149 159.749 95.9877 160.036 96.2514 160.335C97.429 161.663 99.8887 161.604 101.075 160.335C102.394 158.923 102.33 157.01 101.075 155.593C99.5614 153.885 97.5654 152.705 95.3876 152.003C93.6917 151.458 91.5866 152.638 91.1911 154.346C90.7728 156.187 91.7639 157.886 93.578 158.471Z" fill="black"/>
<path d="M91.2367 194.212C92.6917 196.42 94.6012 198.261 96.9382 199.562C98.4886 200.429 100.735 199.973 101.603 198.36C102.458 196.768 102.035 194.699 100.38 193.774C99.9662 193.546 99.5798 193.291 99.1842 193.032C98.6568 192.688 99.3706 193.228 99.0933 192.96C98.9251 192.799 98.7341 192.656 98.5659 192.5C98.2567 192.214 97.9657 191.914 97.6884 191.597C97.4838 191.364 97.3292 191.137 97.6066 191.516C97.4429 191.289 97.2838 191.061 97.1292 190.828C96.1607 189.358 94.0602 188.611 92.4643 189.626C90.9685 190.569 90.2001 192.634 91.2367 194.212Z" fill="black"/>
<path d="M78.1879 82.9045C73.755 81.6172 69.0947 80.9601 64.4708 81.1076C62.834 81.1613 60.5061 81.8183 58.9194 81.3043C58.2283 81.0808 58.0009 80.6696 57.6372 80.0349C57.4372 79.6907 57.2917 79.2795 57.0644 78.9577C56.9825 78.8146 56.9143 78.6671 56.8643 78.5107C56.6688 77.8 56.2505 78.1218 55.614 79.4762C55.0411 79.3242 54.4682 79.1722 53.8908 79.0203C54.0318 79.0873 54.1727 79.1588 54.3136 79.2259C58.2328 81.1389 61.6928 75.355 57.7554 73.4375C54.3773 71.7926 50.3399 73.7906 50.0216 77.6301C49.7716 80.6651 51.7221 84.3706 54.1136 86.2792C57.0371 88.6125 60.5834 87.9777 64.057 87.8302C68.2672 87.6514 72.341 88.2012 76.3783 89.3723C80.5931 90.5926 82.3981 84.1248 78.1879 82.9045Z" fill="black"/>
<path d="M83.7123 111.404C78.0745 111.033 72.6231 111.712 67.0126 111.824C65.1348 111.86 63.348 111.632 62.1841 110.05C60.9247 108.338 60.52 106.067 60.0699 104.047C59.1378 99.8317 52.5635 101.615 53.4955 105.83C54.7049 111.292 57.101 117.005 63.3116 118.225C66.3169 118.815 69.3041 118.332 72.3185 118.118C76.1149 117.845 79.9159 117.863 83.7123 118.109C88.0952 118.395 88.077 111.69 83.7123 111.404Z" fill="black"/>
<path d="M80.0108 60.931C86.6353 63.2642 92.7141 66.2501 99.9386 65.1997C101.757 64.936 102.776 62.6653 102.321 61.074C101.775 59.1565 99.9614 58.4681 98.1246 58.7319C92.5641 59.5409 86.8808 56.2467 81.8204 54.4632C77.683 53.0105 75.9007 59.4828 80.0108 60.931Z" fill="black"/>
<path d="M57.0052 4.22699C57.4826 9.2287 58.1146 14.217 58.9193 19.1785C59.7196 24.1266 60.5107 29.1864 62.2293 33.9244C65.5256 43.0294 71.9272 50.9633 77.3195 58.9419C79.7383 62.5177 85.6443 59.1654 83.2073 55.5583C80.5749 51.6651 77.9333 47.7808 75.319 43.8742C72.8365 40.1642 70.3313 36.3426 68.8082 32.1409C65.6301 23.3622 64.7117 13.4527 63.8342 4.22699C63.4205 -0.0327382 56.596 -0.0729666 57.0052 4.22699Z" fill="black"/>
<path d="M68.0216 67.3005C73.3457 67.6849 78.6834 66.2412 83.0482 63.2196C86.6081 60.7567 83.2073 54.9415 79.6064 57.4312C76.1146 59.8449 72.2772 60.8998 68.0216 60.5958C63.6432 60.2829 63.6614 66.9876 68.0216 67.3005Z" fill="black"/>
<path d="M125.459 87.106C138.212 60.7565 148.951 31.9933 143.177 2.42103C142.35 -1.81188 135.775 -0.019485 136.603 4.20448C141.99 31.8234 131.456 59.1652 119.571 83.7268C117.693 87.5977 123.572 91.0037 125.459 87.106Z" fill="black"/>
<path d="M113.893 100.131C113.015 100.94 111.369 101.204 110.396 100.431C108.969 99.2907 106.973 99.0583 105.572 100.431C104.376 101.606 104.136 104.024 105.572 105.173C109.501 108.302 114.952 108.347 118.712 104.874C121.917 101.91 117.089 97.1765 113.893 100.131Z" fill="black"/>
<path d="M104.776 118.363C102.326 120.124 100.307 122.118 98.5385 124.541C97.4973 125.971 98.2384 128.335 99.7615 129.127C101.521 130.043 103.312 129.448 104.426 127.924C104.472 127.866 104.967 127.209 104.772 127.459C104.608 127.661 105.004 127.191 105.04 127.147C105.408 126.722 105.79 126.306 106.19 125.913C106.55 125.555 106.922 125.211 107.309 124.88C107.482 124.733 107.654 124.59 107.827 124.447C108.668 123.758 107.336 124.791 108.218 124.156C109.655 123.124 110.51 121.197 109.441 119.57C108.527 118.167 106.318 117.259 104.776 118.363Z" fill="black"/>
<path d="M101.758 132.94C107.436 134.169 111.133 139.224 110.137 144.954C109.592 148.11 109.264 150.881 111.819 153.335C114.415 155.829 118.057 155.977 121.458 155.646C123.29 155.467 124.868 154.234 124.868 152.294C124.868 150.618 123.304 148.763 121.458 148.941C120.267 149.058 118.062 149.523 116.98 148.807C115.97 148.137 116.671 147.069 116.839 146.036C117.325 143.082 117.125 140.038 116.07 137.217C114.038 131.782 109.314 127.728 103.563 126.481C99.2934 125.551 97.4657 132.01 101.758 132.94Z" fill="black"/>
<path d="M104.604 152.003C102.426 152.705 100.43 153.885 98.9157 155.592C97.7427 156.915 97.4926 159.052 98.9157 160.335C100.198 161.493 102.485 161.747 103.74 160.335C103.976 160.071 104.217 159.812 104.481 159.575C104.567 159.499 104.772 159.249 104.885 159.226C104.795 159.293 104.708 159.36 104.617 159.428C104.726 159.352 104.835 159.276 104.949 159.204C105.245 159.012 105.554 158.833 105.877 158.677C105.954 158.636 106.49 158.422 106.077 158.574C105.608 158.748 106.413 158.475 106.422 158.471C108.114 157.926 109.391 156.129 108.805 154.345C108.254 152.687 106.422 151.418 104.604 152.003Z" fill="black"/>
<path d="M102.871 190.823C102.744 191.016 102.599 191.203 102.476 191.4C102.271 191.722 102.83 191.029 102.403 191.489C102.085 191.834 101.776 192.178 101.43 192.495C101.294 192.62 101.148 192.741 101.012 192.866C100.362 193.447 101.344 192.669 100.925 192.947C100.493 193.233 100.071 193.514 99.6159 193.769C98.0656 194.636 97.4017 196.849 98.3929 198.355C99.4023 199.897 101.398 200.483 103.058 199.557C105.39 198.257 107.3 196.415 108.759 194.207C109.732 192.732 109.114 190.439 107.536 189.621C105.84 188.74 103.908 189.25 102.871 190.823Z" fill="black"/>
<path d="M123.622 89.3722C127.66 88.2011 131.734 87.6469 135.944 87.8301C139.426 87.9821 142.955 88.6168 145.887 86.2791C148.283 84.366 150.225 80.6874 149.979 77.63C149.665 73.8039 145.624 71.7925 142.245 73.4373C138.313 75.3549 141.763 81.1388 145.687 79.2258C145.828 79.1587 145.969 79.0872 146.11 79.0201C145.537 79.1721 144.964 79.3241 144.387 79.4761C143.996 79.0827 143.609 78.6894 143.218 78.296C143.164 78.4391 143.109 78.5821 143.055 78.7251C142.827 78.9084 142.659 79.5029 142.518 79.7577C142.227 80.2851 141.95 80.9332 141.391 81.2282C139.986 81.9702 137.021 81.1567 135.525 81.1075C130.902 80.96 126.241 81.6171 121.808 82.9044C117.607 84.1247 119.399 90.5969 123.622 89.3722Z" fill="black"/>
<path d="M116.288 118.109C119.939 117.872 123.595 117.845 127.246 118.086C130.392 118.296 133.556 118.86 136.689 118.225C142.904 116.964 145.291 111.319 146.505 105.83C147.437 101.624 140.863 99.8271 139.931 104.047C139.503 105.978 139.117 108.119 137.989 109.795C136.807 111.551 135.025 111.864 132.988 111.824C127.378 111.712 121.926 111.037 116.288 111.404C111.928 111.69 111.896 118.395 116.288 118.109Z" fill="black"/>
<path d="M118.176 54.4675C113.115 56.251 107.436 59.5452 101.871 58.7362C100.039 58.468 98.225 59.1876 97.6749 61.0784C97.2157 62.6562 98.2341 64.9358 100.057 65.204C107.282 66.2544 113.365 63.2686 119.985 60.9353C124.091 59.4871 122.322 53.0059 118.176 54.4675Z" fill="black"/>
<path d="M136.171 4.22677C135.293 13.4524 134.375 23.362 131.197 32.1407C129.719 36.2216 127.309 39.9405 124.909 43.5432C122.226 47.5615 119.503 51.5531 116.798 55.558C114.361 59.1607 120.267 62.522 122.685 58.9417C128.078 50.9631 134.479 43.0292 137.776 33.9242C139.444 29.3203 140.226 24.4124 141.013 19.6029C141.849 14.5029 142.504 9.37152 142.995 4.22677C143.4 -0.0642483 136.58 -0.0374292 136.171 4.22677Z" fill="black"/>
<path d="M131.979 60.5956C127.723 60.8996 123.881 59.8447 120.394 57.431C116.798 54.9413 113.388 60.7521 116.952 63.2194C121.317 66.241 126.655 67.6803 131.979 67.3004C136.33 66.9875 136.362 60.2828 131.979 60.5956Z" fill="black"/>
</svg>

<svg xmlns="http://www.w3.org/2000/svg" width="200" height="200" fill="none"><path fill="#000" d="M80.43 83.723C68.54 59.16 58.004 31.818 63.396 4.2c.823-4.215-5.746-6.02-6.574-1.783-5.77 29.577 4.965 58.335 17.718 84.685 1.883 3.902 7.766.5 5.888-3.38M81.284 104.874c3.756 3.473 9.212 3.432 13.14.299 1.432-1.14 1.205-3.553 0-4.742-1.414-1.39-3.387-1.145-4.824 0-.973.773-2.619.509-3.496-.3-3.192-2.95-8.025 1.779-4.82 4.743M91.778 124.152q.135.099.277.197-.292-.23-.018-.009.264.207.523.429.647.548 1.246 1.144a22.481 22.481 0 0 1 1.478 1.623c-.35-.429.286.389.286.393 1.036 1.421 3.019 2.248 4.664 1.202 1.433-.907 2.333-3.061 1.224-4.586a27.3 27.3 0 0 0-6.238-6.177c-1.446-1.037-3.865-.286-4.665 1.203-.937 1.738-.319 3.473 1.223 4.581"/><path fill="#000" d="M96.429 126.476a17.24 17.24 0 0 0-12.508 10.737c-1.064 2.816-1.246 5.873-.768 8.819.163.987.786 1.931.027 2.668-.937.907-3.564.349-4.647.241-1.836-.178-3.41 1.668-3.41 3.353 0 1.962 1.57 3.173 3.41 3.352 3.329.326 6.775.192 9.394-2.11 2.782-2.449 2.469-5.292 1.928-8.582-.946-5.739 2.668-10.776 8.379-12.014 4.292-.926 2.478-7.394-1.805-6.464M93.578 158.471c.086.027.464.098.505.17-.06-.107-.528-.255-.078-.027.36.183.71.367 1.046.59.068.045.537.385.196.125-.341-.263.113.108.168.157.3.263.573.55.836.849 1.178 1.328 3.638 1.269 4.824 0 1.319-1.412 1.255-3.325 0-4.742-1.514-1.708-3.51-2.888-5.687-3.59-1.696-.545-3.801.635-4.197 2.343-.418 1.841.573 3.54 2.387 4.125M91.237 194.212c1.455 2.208 3.364 4.049 5.701 5.35 1.55.867 3.797.411 4.665-1.202.855-1.592.432-3.661-1.223-4.586-.414-.228-.8-.483-1.196-.742-.527-.344.187.196-.09-.072-.169-.161-.36-.304-.528-.46q-.463-.428-.878-.903c-.204-.233-.359-.46-.081-.081a22 22 0 0 1-.478-.688c-.968-1.47-3.069-2.217-4.665-1.202-1.495.943-2.264 3.008-1.227 4.586M78.188 82.905c-4.433-1.288-9.093-1.945-13.717-1.797-1.637.053-3.965.71-5.552.196-.69-.223-.918-.634-1.282-1.27-.2-.343-.345-.755-.573-1.076a2.3 2.3 0 0 1-.2-.447q-.294-1.067-1.25.965l-1.723-.456c.14.067.282.139.423.206 3.919 1.913 7.379-3.871 3.441-5.788-3.378-1.645-7.415.353-7.733 4.192-.25 3.035 1.7 6.74 4.092 8.65 2.923 2.332 6.47 1.698 9.943 1.55 4.21-.179 8.284.371 12.321 1.542 4.215 1.22 6.02-5.247 1.81-6.468M83.712 111.404c-5.638-.371-11.089.308-16.7.42-1.877.036-3.664-.192-4.828-1.774-1.26-1.712-1.664-3.983-2.114-6.003-.932-4.215-7.507-2.432-6.574 1.783 1.209 5.462 3.605 11.175 9.816 12.395 3.005.59 5.992.107 9.007-.107 3.796-.273 7.597-.255 11.393-.009 4.383.286 4.365-6.419 0-6.705M80.01 60.931c6.625 2.333 12.704 5.32 19.929 4.269 1.818-.264 2.837-2.535 2.382-4.126-.546-1.917-2.36-2.606-4.196-2.342-5.56.809-11.244-2.485-16.305-4.269-4.137-1.453-5.92 5.02-1.81 6.468"/><path fill="#000" d="M57.005 4.227c.478 5.002 1.11 9.99 1.914 14.952.8 4.948 1.592 10.007 3.31 14.745 3.297 9.105 9.698 17.04 15.09 25.018 2.42 3.576 8.325.223 5.888-3.384-2.632-3.893-5.274-7.777-7.888-11.684-2.483-3.71-4.988-7.531-6.51-11.733-3.179-8.779-4.097-18.688-4.975-27.914-.414-4.26-7.238-4.3-6.829 0"/><path fill="#000" d="M68.022 67.3c5.324.385 10.661-1.059 15.026-4.08 3.56-2.463.16-8.279-3.442-5.789-3.491 2.414-7.329 3.469-11.584 3.165-4.379-.313-4.36 6.392 0 6.705M125.459 87.106c12.753-26.35 23.492-55.113 17.718-84.685-.827-4.233-7.402-2.44-6.574 1.783 5.387 27.62-5.147 54.961-17.032 79.523-1.878 3.87 4.001 7.277 5.888 3.379M113.893 100.131c-.878.809-2.524 1.073-3.497.3-1.427-1.14-3.423-1.373-4.824 0-1.196 1.175-1.436 3.593 0 4.742 3.929 3.129 9.38 3.174 13.14-.299 3.205-2.964-1.623-7.697-4.819-4.743M104.776 118.363a27.2 27.2 0 0 0-6.237 6.178c-1.042 1.43-.3 3.794 1.222 4.586 1.76.916 3.551.321 4.665-1.203.046-.058.541-.715.346-.465-.164.202.232-.268.268-.312a21 21 0 0 1 2.269-2.267q.259-.22.518-.433c.841-.689-.491.344.391-.291 1.437-1.032 2.292-2.959 1.223-4.586-.914-1.403-3.123-2.311-4.665-1.207"/><path fill="#000" d="M101.758 132.94c5.678 1.229 9.375 6.284 8.379 12.014-.545 3.156-.873 5.927 1.682 8.381 2.596 2.494 6.238 2.642 9.639 2.311 1.832-.179 3.41-1.412 3.41-3.352 0-1.676-1.564-3.531-3.41-3.353-1.191.117-3.396.582-4.478-.134-1.01-.67-.309-1.738-.141-2.771.486-2.954.286-5.998-.769-8.819-2.032-5.435-6.756-9.489-12.507-10.736-4.27-.93-6.097 5.529-1.805 6.459M104.604 152.003c-2.178.702-4.174 1.882-5.688 3.589-1.173 1.323-1.423 3.46 0 4.743 1.282 1.158 3.569 1.412 4.824 0 .236-.264.477-.523.741-.76.086-.076.291-.326.404-.349l-.268.202q.162-.115.332-.224c.296-.192.605-.371.928-.527.077-.041.613-.255.2-.103-.469.174.336-.099.345-.103 1.692-.545 2.969-2.342 2.383-4.126-.551-1.658-2.383-2.927-4.201-2.342M102.871 190.823c-.127.193-.272.38-.395.577-.205.322.354-.371-.073.089-.318.345-.627.689-.973 1.006-.136.125-.282.246-.418.371-.65.581.332-.197-.087.081-.432.286-.854.567-1.31.822-1.55.867-2.213 3.08-1.222 4.586 1.01 1.542 3.005 2.128 4.665 1.202 2.332-1.3 4.242-3.142 5.701-5.35.973-1.475.355-3.768-1.223-4.586-1.696-.881-3.628-.371-4.665 1.202M123.622 89.372c4.038-1.17 8.112-1.725 12.322-1.542 3.482.152 7.011.787 9.943-1.55 2.396-1.914 4.338-5.593 4.092-8.65-.314-3.826-4.355-5.837-7.734-4.193-3.932 1.918-.482 7.702 3.442 5.789.141-.067.282-.139.423-.206l-1.723.456q-.584-.59-1.169-1.18l-.163.43c-.228.182-.396.777-.537 1.032-.291.527-.568 1.175-1.127 1.47-1.405.742-4.37-.071-5.866-.12-4.623-.148-9.284.51-13.717 1.796-4.201 1.22-2.409 7.693 1.814 6.468M116.288 118.109c3.651-.237 7.307-.264 10.958-.023 3.146.21 6.31.774 9.443.139 6.215-1.261 8.602-6.906 9.816-12.395.932-4.206-5.642-6.003-6.574-1.783-.428 1.931-.814 4.072-1.942 5.748-1.182 1.756-2.964 2.069-5.001 2.029-5.61-.112-11.062-.787-16.7-.42-4.36.286-4.392 6.991 0 6.705M118.176 54.468c-5.061 1.783-10.74 5.077-16.305 4.268-1.832-.268-3.646.452-4.196 2.342-.46 1.578.56 3.858 2.382 4.126 7.225 1.05 13.308-1.935 19.928-4.269 4.106-1.448 2.337-7.93-1.809-6.468"/><path fill="#000" d="M136.171 4.227c-.878 9.225-1.796 19.135-4.974 27.914-1.478 4.08-3.888 7.8-6.288 11.402-2.683 4.019-5.406 8.01-8.111 12.015-2.437 3.603 3.469 6.964 5.887 3.384 5.393-7.979 11.794-15.913 15.091-25.018 1.668-4.604 2.45-9.512 3.237-14.321.836-5.1 1.491-10.231 1.982-15.376.405-4.291-6.415-4.264-6.824 0"/><path fill="#000" d="M131.979 60.596c-4.256.304-8.098-.751-11.585-3.165-3.596-2.49-7.006 3.321-3.442 5.788 4.365 3.022 9.703 4.461 15.027 4.081 4.351-.312 4.383-7.017 0-6.704"/></svg>
